images/global/icons/b-logo-dark.svg

<?xml version="1.0" encoding="UTF-8" standalone="no"?>
<svg width="54px" height="84px" viewBox="0 0 54 84" version="1.1" xmlns="http://www.w3.org/2000/svg" xmlns:xlink="http://www.w3.org/1999/xlink">
    <defs></defs>
    <g id="Page-1" stroke="none" stroke-width="1" fill="none" fill-rule="evenodd">
        <g id="b-on-white">
            <path d="M0.082502954,0 L24.2804637,0 C30.8396042,0 36.7782603,0.264650597 40.5895854,1.49989331 C48.3009653,3.97037875 51.4033877,10.0576524 51.4033877,15.9689055 C51.4033877,19.3219728 50.5167144,21.3508574 50.2511483,21.9687886 C47.4146034,28.3210228 41.3872177,29.5565754 38.0192292,30.2618971 C41.8305544,30.8798284 46.8828485,31.6737802 50.3395666,35.5558387 C52.5556271,37.938004 53.7962847,41.3787717 53.7962847,44.9078595 C53.7962847,49.7608201 51.2262398,56.5537254 43.425819,59.9951128 C38.7284433,62.0243073 33.6758378,62.2889579 26.4965242,62.2889579 L0.082502954,62.2889579 L0.082502954,0 L0.082502954,0 Z M14.9735078,11.6458659 L14.9735078,24.6152946 L26.7620903,24.6152946 C30.3078493,24.5272843 36.0690462,24.3509539 36.0690462,17.9100897 C36.0690462,11.9108264 30.8396042,11.6458659 27.8256001,11.6458659 L14.9735078,11.6458659 L14.9735078,11.6458659 Z M14.9735078,35.9084996 L14.9735078,50.9957529 L25.8757284,50.9957529 C31.1054817,50.9074328 37.9304996,50.7307924 37.9304996,43.5846065 C37.9304996,36.0854498 31.7259661,35.9968198 28.5348142,35.9084996 L14.9735078,35.9084996 L14.9735078,35.9084996 Z" id="Fill-1" fill="#071722"></path>
            <path d="M0,70.9660267 L53.2377553,70.9660267 L53.2377553,83.0519439 L0,83.0519439 L0,70.9660267 Z" id="Fill-2" fill="#FB4D42"></path>
        </g>
    </g>
</svg>

<svg width="54" height="84" xmlns="http://www.w3.org/2000/svg"><g fill="none" fill-rule="evenodd"><path d="M.083 0H24.28c6.56 0 12.498.265 16.31 1.5 7.711 2.47 10.813 8.558 10.813 14.469 0 3.353-.886 5.382-1.152 6-2.836 6.352-8.864 7.588-12.232 8.293 3.812.618 8.864 1.412 12.32 5.294 2.217 2.382 3.457 5.823 3.457 9.352 0 4.853-2.57 11.646-10.37 15.087-4.698 2.03-9.75 2.294-16.93 2.294H.084V0zm14.89 11.646v12.97h11.79c3.545-.089 9.306-.265 9.306-6.706 0-6-5.23-6.264-8.243-6.264H14.974zm0 24.262v15.088h10.903c5.23-.089 12.054-.265 12.054-7.411 0-7.5-6.204-7.588-9.395-7.677H14.974z" fill="#071722"/><path d="M0 70.966h53.238v12.086H0V70.966z" fill="#FB4D42"/></g></svg>
